src/assets/dribbble.svg

<svg width="14" height="14" viewBox="0 0 14 14" fill="none" xmlns="http://www.w3.org/2000/svg">
<path fill-rule="evenodd" clip-rule="evenodd" d="M13.4001 6.9911C13.4001 7.42392 13.356 7.85614 13.2695 8.27745C13.1851 8.68876 13.0601 9.09256 12.8963 9.47858C12.7363 9.85777 12.5379 10.2232 12.306 10.5639C12.0776 10.9026 11.8144 11.2202 11.5253 11.5098C11.2356 11.7982 10.9169 12.0606 10.5784 12.29C10.2365 12.5203 9.87059 12.7184 9.49118 12.8792C9.10461 13.0421 8.69987 13.1669 8.28892 13.2511C7.86705 13.3379 7.43325 13.3822 6.99981 13.3822C6.56604 13.3822 6.13227 13.3379 5.711 13.2511C5.29942 13.1669 4.89471 13.0421 4.50844 12.8792C4.12905 12.7184 3.76277 12.5203 3.42088 12.29C3.08243 12.0606 2.76366 11.7982 2.47458 11.5098C2.1852 11.2202 1.92205 10.9026 1.69329 10.5639C1.46265 10.2232 1.26388 9.85774 1.10326 9.47858C0.939478 9.09256 0.814177 8.68874 0.729482 8.27745C0.64386 7.85614 0.600098 7.42392 0.600098 6.9911C0.600098 6.55796 0.643835 6.12481 0.729507 5.70443C0.814202 5.29312 0.939503 4.88869 1.10328 4.5033C1.2639 4.12384 1.46268 3.75811 1.69332 3.41731C1.92207 3.07842 2.18523 2.76134 2.47461 2.47143C2.76369 2.18307 3.08245 1.92127 3.42091 1.69222C3.76279 1.46096 4.12908 1.26282 4.50846 1.10178C4.89474 0.938541 5.29942 0.813421 5.71102 0.729799C6.13229 0.643675 6.56606 0.599976 6.99984 0.599976C7.43328 0.599976 7.86705 0.643675 8.28895 0.729799C8.6999 0.813446 9.10461 0.938566 9.49121 1.10178C9.87059 1.2628 10.2366 1.46096 10.5784 1.69222C10.9169 1.92127 11.2357 2.18307 11.5254 2.47143C11.8144 2.76134 12.0776 3.07842 12.306 3.41731C12.5379 3.75811 12.7363 4.12386 12.8963 4.5033C13.0601 4.88869 13.1851 5.29312 13.2695 5.70443C13.356 6.12481 13.4001 6.55796 13.4001 6.9911ZM4.66779 2.05451C3.14363 2.77322 2.00607 4.17563 1.65136 5.86578C1.79545 5.86703 4.07307 5.89575 6.69726 5.19951C5.75128 3.52121 4.74061 2.15159 4.66779 2.05451ZM7.15009 6.03994C4.33589 6.88124 1.63543 6.8207 1.53856 6.81697C1.53698 6.87563 1.53417 6.93241 1.53417 6.9911C1.53417 8.39319 2.06389 9.67141 2.93456 10.6379C2.93268 10.6351 4.4284 7.98533 7.37792 7.03292C7.44916 7.00921 7.52168 6.98797 7.59355 6.96738C7.45638 6.65721 7.30665 6.34638 7.15009 6.03994ZM10.6094 2.89492C9.6471 2.04764 8.38362 1.5337 6.99979 1.5337C6.5557 1.5337 6.12474 1.58738 5.71191 1.68661C5.79377 1.79647 6.82041 3.15644 7.75513 4.87028C9.81744 4.09824 10.5959 2.91488 10.6094 2.89492ZM7.96612 7.87175C7.95394 7.87577 7.94177 7.87925 7.92987 7.8836C4.70507 9.0062 3.65196 11.2685 3.64057 11.2932C4.56845 12.0138 5.73226 12.4485 6.99983 12.4485C7.75672 12.4485 8.47769 12.2946 9.13366 12.016C9.05272 11.5391 8.73521 9.86772 7.96612 7.87175ZM10.054 11.5173C11.2812 10.6903 12.1528 9.37717 12.396 7.85611C12.2835 7.81992 10.7543 7.33652 8.99018 7.61896C9.70709 9.58624 9.99838 11.1884 10.054 11.5173ZM8.17582 5.68353C8.30268 5.94381 8.42552 6.20871 8.53895 6.47493C8.57928 6.57043 8.61866 6.66406 8.65709 6.75767C10.5347 6.52173 12.3845 6.91868 12.4635 6.93489C12.451 5.64109 11.9876 4.45367 11.2207 3.52404C11.2104 3.53868 10.3338 4.80349 8.17582 5.68353Z" fill="white"/>
</svg>

<svg xmlns="http://www.w3.org/2000/svg" width="14" height="14" fill="none"><path fill="#fff" fill-rule="evenodd" d="M13.4 6.991a6.405 6.405 0 0 1-.504 2.488 6.437 6.437 0 0 1-2.318 2.811 6.47 6.47 0 0 1-1.087.59 6.423 6.423 0 0 1-6.07-.59 6.446 6.446 0 0 1-2.318-2.811A6.369 6.369 0 0 1 .73 5.704a6.355 6.355 0 0 1 .963-2.287 6.452 6.452 0 0 1 1.728-1.725A6.338 6.338 0 0 1 5.71.73a6.45 6.45 0 0 1 3.78.372 6.42 6.42 0 0 1 3.779 4.602c.086.42.13.854.13 1.287ZM4.668 2.055a5.466 5.466 0 0 0-3.017 3.81c.144.002 2.422.03 5.046-.665a32.864 32.864 0 0 0-2.03-3.145ZM7.15 6.04c-2.814.841-5.515.78-5.611.777-.002.059-.005.115-.005.174 0 1.402.53 2.68 1.4 3.647-.001-.003 1.494-2.653 4.444-3.605.071-.024.144-.045.216-.066-.138-.31-.287-.62-.444-.927Zm3.46-3.145A5.444 5.444 0 0 0 7 1.534c-.444 0-.875.053-1.288.153.082.11 1.108 1.47 2.043 3.183 2.062-.772 2.84-1.955 2.854-1.975ZM7.965 7.872l-.036.012c-3.225 1.122-4.278 3.384-4.29 3.41a5.459 5.459 0 0 0 5.494.722 22.694 22.694 0 0 0-1.168-4.144Zm2.088 3.645a5.46 5.46 0 0 0 2.342-3.66 7.94 7.94 0 0 0-3.406-.238 23.595 23.595 0 0 1 1.064 3.898ZM8.176 5.684a17.214 17.214 0 0 1 .481 1.074c1.878-.236 3.727.16 3.806.177a5.425 5.425 0 0 0-1.242-3.411c-.01.015-.887 1.28-3.045 2.16Z" clip-rule="evenodd"/></svg>
